icons/1_Primary/Roberts Space Industries.svg

<svg width="1024" height="1024" fill="none" xmlns="http://www.w3.org/2000/svg"><g clip-path="url(#a)"><path d="M512 1024c282.77 0 512-229.23 512-512S794.77 0 512 0 0 229.23 0 512s229.23 512 512 512Z" fill="#F8C18C"/><path d="M687.16 380.56v.14l-16.96 60.88-.06.22h-.07l-102.79-.22c-6.14 0-10.75 2.14-12.29 7.83-1.36 5.06.31 9 5 12.32l1.91 1.21 109.84 67.29c10.44 6.34 16.49 20.51 14.68 31.93l-.47 2.25-15.75 57.31c-2.89 11.06-15.31 20.54-28.29 21.62l-2.44.1H501.19l16.92-61.24h83.34c6.14 0 10.75-3.91 11.9-7.48 1.38-4.16.59-7.46-4.06-10.94l-1.69-1.17L497 494.27c-10.44-6.35-16.5-20.51-14.68-31.93l.47-2.25 15.74-57.68c2.9-11.06 15-20.54 27.59-21.61l2.37-.1 158.57-.14h.1Zm80.67 0 68.67.14-72.92 262.74h-69.44l73.37-262.74h.28l.04-.14ZM482 582.58l-16.75 60.87h-11.17l16.64-60.87H482Zm-22.33 0-17.36 60.87h-12l17.51-60.75v-.12h11.85Zm46.06 0-17.23 60.87h-12.09l17.23-60.87h12.09Zm-50.79-202h-195.1L187.5 643.44H256l17.7-63.76 46.18-21.37 16.55 63.4.65 2.05c4 10.84 16.31 19.68 29 19.68h54.64l16.93-61.27H403l-1.52-.11a10.583 10.583 0 0 1-8.48-7l-11.55-45.24 52.72-24.22 2.69-1.31a49.769 49.769 0 0 0 24.63-30.39l18.09-64.12.51-2.07c3.1-15.09-7.87-27.15-25.16-27.15l.01.02Zm-55.6 67.69c-1.15 3.59-3.82 7.9-11.47 11.5L295 503.58l16.82-62.16h78.75c6.08 0 10.29 2.16 8.76 6.83l.01.02Zm356.22-67.69-16.76 60.87h-11.16l16.87-60.87h11.05Zm-23.73 0-16.74 60.87h-11.18l16.92-60.87h11Zm-22.6 0v.14h.31l-17.28 60.51-.06.22h-12l.06-.22 17-60.51v-.14h11.97Z" fill="#fff"/></g><defs><clipPath id="a"><path fill="#fff" d="M0 0h1024v1024H0z"/></clipPath></defs></svg>

<svg width="1024" height="1024" viewBox="0 0 1024 1024" fill="none" xmlns="http://www.w3.org/2000/svg">
<g clip-path="url(#clip0_2_3351)">
<path d="M512 1024C794.77 1024 1024 794.77 1024 512C1024 229.23 794.77 0 512 0C229.23 0 0 229.23 0 512C0 794.77 229.23 1024 512 1024Z" fill="#F8C18C"/>
<path d="M687.16 380.56V380.7L670.2 441.58L670.14 441.8H670.07L567.28 441.58C561.14 441.58 556.53 443.72 554.99 449.41C553.63 454.47 555.3 458.41 559.99 461.73L561.9 462.94L671.74 530.23C682.18 536.57 688.23 550.74 686.42 562.16L685.95 564.41L670.2 621.72C667.31 632.78 654.89 642.26 641.91 643.34L639.47 643.44H501.19L518.11 582.2H601.45C607.59 582.2 612.2 578.29 613.35 574.72C614.73 570.56 613.94 567.26 609.29 563.78L607.6 562.61L497 494.27C486.56 487.92 480.5 473.76 482.32 462.34L482.79 460.09L498.53 402.41C501.43 391.35 513.53 381.87 526.12 380.8L528.49 380.7L687.06 380.56H687.16ZM767.83 380.56L836.5 380.7L763.58 643.44H694.14L767.51 380.7H767.79L767.83 380.56ZM482 582.58L465.25 643.45H454.08L470.72 582.58H482ZM459.67 582.58L442.31 643.45H430.31L447.82 582.7V582.58H459.67ZM505.73 582.58L488.5 643.45H476.41L493.64 582.58H505.73ZM454.94 380.58H259.84L187.5 643.44H256L273.7 579.68L319.88 558.31L336.43 621.71L337.08 623.76C341.08 634.6 353.39 643.44 366.08 643.44H420.72L437.65 582.17H403L401.48 582.06C399.561 581.782 397.755 580.983 396.259 579.748C394.764 578.514 393.636 576.892 393 575.06L381.45 529.82L434.17 505.6L436.86 504.29C442.805 501.151 448.053 496.839 452.286 491.616C456.519 486.393 459.65 480.367 461.49 473.9L479.58 409.78L480.09 407.71C483.19 392.62 472.22 380.56 454.93 380.56L454.94 380.58ZM399.34 448.27C398.19 451.86 395.52 456.17 387.87 459.77L295 503.58L311.82 441.42H390.57C396.65 441.42 400.86 443.58 399.33 448.25L399.34 448.27ZM755.56 380.58L738.8 441.45H727.64L744.51 380.58H755.56ZM731.83 380.58L715.09 441.45H703.91L720.83 380.58H731.83ZM709.23 380.58V380.72H709.54L692.26 441.23L692.2 441.45H680.2L680.26 441.23L697.26 380.72V380.58H709.23Z" fill="white"/>
</g>
<defs>
<clipPath id="clip0_2_3351">
<rect width="1024" height="1024" fill="white"/>
</clipPath>
</defs>
</svg>
